X:1
T: Miss C.M. Barbour
C:
R:Reel
Q: 232
K:D
M:4/4
L:1/8
A2|^EF AE FA EF|B2 A2 A3G|^EF AE FA BA|G4 G3F|
E^D EF GF GA|c2 c2 c3B|AF G^G B2 A2|F4 F2 AF|
^EF AE FA EF|B2 A2 A2 FE|DC DE FD FA|B4 B3A|
GF GA BA Bc|d2 A2 A2 BA|GF ED CD EC|D6|((3ABc) |
d2 F2 A2 D2|F^E FG F3E|DB AF D2 F2|G4 G3^d|
e2 G2 B2 E2|GF GA G2 GA|B^A Bc dc de|fe fg ag fe|
d2 A2 F2 D2|F^E FG F3E|DB AF D2 d2|B4 B3A|
GF GA BA Bc|d2 A2 A2 BA|GF ED CD EC|D6||
